elusive/hourglass.svg

<?xml version="1.0" encoding="UTF-8" standalone="no"?>
<!-- Created with Inkscape (http://www.inkscape.org/) -->

<svg
   xmlns:dc="http://purl.org/dc/elements/1.1/"
   xmlns:cc="http://creativecommons.org/ns#"
   xmlns:rdf="http://www.w3.org/1999/02/22-rdf-syntax-ns#"
   xmlns:svg="http://www.w3.org/2000/svg"
   xmlns="http://www.w3.org/2000/svg"
   xmlns:sodipodi="http://sodipodi.sourceforge.net/DTD/sodipodi-0.dtd"
   xmlns:inkscape="http://www.inkscape.org/namespaces/inkscape"
   width="1200"
   height="1200"
   id="svg3039"
   version="1.1"
   inkscape:version="0.48.4 r9939"
   sodipodi:docname="hourglass.svg">
  <defs
     id="defs3041" />
  <sodipodi:namedview
     id="base"
     pagecolor="#ffffff"
     bordercolor="#666666"
     borderopacity="1.0"
     inkscape:pageopacity="0.0"
     inkscape:pageshadow="2"
     inkscape:zoom="0.35"
     inkscape:cx="841.05419"
     inkscape:cy="482.35213"
     inkscape:document-units="px"
     inkscape:current-layer="layer1"
     showgrid="false"
     inkscape:window-width="1535"
     inkscape:window-height="876"
     inkscape:window-x="65"
     inkscape:window-y="24"
     inkscape:window-maximized="1" />
  <metadata
     id="metadata3044">
    <rdf:RDF>
      <cc:Work
         rdf:about="">
        <dc:format>image/svg+xml</dc:format>
        <dc:type
           rdf:resource="http://purl.org/dc/dcmitype/StillImage" />
      </cc:Work>
    </rdf:RDF>
  </metadata>
  <g
     inkscape:label="Layer 1"
     inkscape:groupmode="layer"
     id="layer1"
     transform="translate(0,147.63782)">
    <path
       style="fill:#000000;fill-opacity:1;stroke:none"
       d="m 109.21681,-147.63782 0,52.566742 C 106.19396,308.00263 53.525115,172.30095 333.03612,452.36219 48.436654,732.81585 109.21681,601.68274 109.21681,999.79548 l 0,52.56672 52.56674,0 876.38605,0 52.5668,0 0,-52.56672 C 1093.727,596.82373 1146.7164,731.75097 867.32775,452.36219 1151.7498,172.72411 1090.7364,302.78144 1090.7364,-95.071078 l 0,-52.566742 -52.5668,0 -876.38605,0 -52.56674,0 z m 105.13348,105.133477 771.25262,0 C 999.96017,253.9271 967.20585,202.99743 755.21269,414.99052 l -36.96092,37.37167 36.96092,37.37166 c 236.75666,234.10057 230.39022,153.27304 230.39022,457.49483 l -771.25262,0 C 199.95081,650.81528 232.94721,701.49396 444.74044,489.32317 L 481.70141,452.36219 444.74044,415.4012 C 208.14085,181.065 214.35029,261.74364 214.35029,-42.504343 z M 321.12647,173.51208 c 90.78249,77.59612 218.08688,111.9866 244.76389,265.70843 l 50.92401,0 C 614.6792,300.99917 770.24022,250.44942 878.41603,173.51208 c -214.42056,23.11175 -301.87409,35.51185 -557.28956,0 z M 597.92316,612.52647 C 457.90012,611.644 318.8364,683.43215 321.53715,830.59628 l 557.28951,0 C 878.92855,686.96214 737.94628,613.40892 597.92316,612.52647 z"
       id="path3840"
       inkscape:connector-curvature="0" />
  </g>
</svg>

<?xml version="1.0" encoding="utf-8"?>
<!-- Generator: Adobe Illustrator 16.0.0, SVG Export Plug-In . SVG Version: 6.00 Build 0)  -->
<!DOCTYPE svg PUBLIC "-//W3C//DTD SVG 1.1//EN" "http://www.w3.org/Graphics/SVG/1.1/DTD/svg11.dtd">
<svg version="1.1"
	 id="svg3039" xmlns:dc="http://purl.org/dc/elements/1.1/" xmlns:cc="http://creativecommons.org/ns#" xmlns:rdf="http://www.w3.org/1999/02/22-rdf-syntax-ns#" xmlns:svg="http://www.w3.org/2000/svg" xmlns:sodipodi="http://sodipodi.sourceforge.net/DTD/sodipodi-0.dtd" xmlns:inkscape="http://www.inkscape.org/namespaces/inkscape" sodipodi:docname="hourglass.svg" inkscape:version="0.48.4 r9939"
	 xmlns="http://www.w3.org/2000/svg" xmlns:xlink="http://www.w3.org/1999/xlink" x="0px" y="0px" width="1200px" height="1200px"
	 viewBox="0 0 1200 1200" enable-background="new 0 0 1200 1200" xml:space="preserve">
<sodipodi:namedview  inkscape:cy="482.35213" inkscape:cx="841.05419" inkscape:zoom="0.35" showgrid="false" id="base" borderopacity="1.0" bordercolor="#666666" pagecolor="#ffffff" inkscape:current-layer="layer1" inkscape:window-maximized="1" inkscape:window-y="24" inkscape:window-height="876" inkscape:window-width="1535" inkscape:pageshadow="2" inkscape:pageopacity="0.0" inkscape:window-x="65" inkscape:document-units="px">
	</sodipodi:namedview>
<g id="layer1" transform="translate(0,147.63782)" inkscape:label="Layer 1" inkscape:groupmode="layer">
	<path id="path3840" inkscape:connector-curvature="0" d="M109.217-147.638v52.567c-3.023,403.074-55.692,267.372,223.819,547.433
		c-284.6,280.454-223.819,149.32-223.819,547.434v52.566h52.567h876.386h52.566v-52.566c2.99-402.972,55.98-268.045-223.408-547.434
		c284.422-279.638,223.408-149.581,223.408-547.433v-52.567h-52.566H161.784H109.217L109.217-147.638z M214.35-42.505h771.252
		c14.357,296.431-18.396,245.501-230.39,457.495l-36.961,37.372l36.961,37.372c236.757,234.101,230.39,153.272,230.39,457.494
		H214.35c-14.399-296.413,18.597-245.734,230.39-457.905l36.961-36.961l-36.961-36.961
		C208.141,181.065,214.35,261.744,214.35-42.505L214.35-42.505z M321.126,173.513c90.783,77.596,218.086,111.986,244.764,265.708
		h50.924C614.68,300.999,770.24,250.449,878.416,173.513C663.995,196.624,576.542,209.024,321.126,173.513z M597.923,612.526
		c-140.022-0.882-279.086,70.906-276.386,218.07h557.289C878.929,686.962,737.946,613.409,597.923,612.526z"/>
</g>
</svg>
